!!!id: EG042
!!!page: 111-112
!!!COM: Anonymous
!!!LYR: Anonymous
!!!PTL@@FR: Chansons Populaires du Canada
!!!OTL@@FR: Fendez le bois, chauffez le four
!!!PUB: G. E. Desbarats
!!!YEM:
!!!PDT: 1865
!!!SMA:
!!!OMD:
!!!AGN-Laforte:
!!!AGN-type:
!!!AGN-rime:
**kern
*clefG2
*k[f#]
*e:
*M2/2
*
*
=1
4b
8b
8cc
4b
4g
=2
4e
4g
2b
!!LO:PB:g=original
=3
4a
8b
8cc
4b
4g
=4
4e
4g
2b
=5
4a
8b
8cc
4.b
8a
!!LO:PB:g=original
=6
4a
4g
2e
=!|:7
4a
8g
8f#
2g
=8
4e
8e
8e
2g
!!LO:PB:g=original
=9
4b
8b
8dd
4.b/
8a
=10
4a
4g
2e
!LO:TX:b:i:t=Reprise de la dernière partie à volanté.
==:||
*
*
==|
!!!RWG: Time sig marked simply as '2' in original
!!!RNB: "Reprise…" score direction located after the final repeat sign in original
*-
